X:45
T:Untitled Quick Step,2voices. JGi.045
N:Given in Sumner as continuation of March from Newark
M:2/4
L:1/8
Q:1/4=110
S:Joshua Gibbons MS,1823,Tealby,Lincs.
R:quick step
O:Tealby,Lincolnshire
Z:VMP/R.Greig, 2009
K:F
[V:1]|:fcaf|gcb2|afef|g/f/e/d/ cB|Acfa|Begb|bagf|f2e2|
[V:2]|:AAAA|eAg2|FAGA|e/d/c/B/ AG|AAAc|BBeg|gfBA|A2G2|
[V:1]fcaf|gcb2|agff|g/f/e/d/ cB|Acfa|Begb|agfe|f2f2:|
[V:2]AAAA|eAg2|FAGA|e/d/c/B/ AG|AAAc|BBeg|fBAG|A2A2:|
[V:1]|:a2gf|edcB|Abgf|f2e2|f[cA][dB][ec]|fgab|bdgf|f2e2|
[V:2]|:f2ed|cBAG|GgBA|A2G2|AABc|defg|dBBA|A2G2|
[V:1]f/e/f/g/ a/g/a/b/|c’aec|d/^c/d/e/ f/e/f/g/|afcA|
[V:2]F/E/F/G/ A/G/A/B/|cA FC|D/^C/D/E/ F/E/F/G/|AFCA,|
[V:1]B/A/B/c/ d/c/d/e/|f/e/f/g/ ab|agfe|f2f2:|
[V:2]B,/A,/B,/C/ B/A/B/c/|d/c/d/e/ fg|fBAG|A2A2:|

